svgs/tokopedia.svg

<svg width="192" height="192" viewBox="0 0 192 192" fill="none" xmlns="http://www.w3.org/2000/svg"><path fill-rule="evenodd" clip-rule="evenodd" d="M96 28c-9.504 0-17.78 5.307-22.008 13.127C82.736 42.123 88.89 44 96 47.332c7.11-3.332 13.264-5.209 22.008-6.205C113.781 33.31 105.506 28 96 28Zm0-12c-15.973 0-29.568 10.117-34.754 24.28C52.932 40 42.462 40 28.53 40H28a6 6 0 0 0-6 6v124a6 6 0 0 0 6 6h92c27.614 0 50-22.386 50-50V46a6 6 0 0 0-6-6h-.531c-13.931 0-24.401 0-32.715.28C125.566 26.113 111.97 16 96 16ZM34 52.001V164h86c20.987 0 38-17.013 38-38V52.001c-18.502.009-29.622.098-37.872.966-8.692.915-13.999 2.677-21.445 6.4a6 6 0 0 1-5.366 0c-7.446-3.723-12.753-5.485-21.445-6.4-8.25-.868-19.37-.957-37.872-.966ZM50 96c0-9.941 8.059-18 18-18s18 8.059 18 18-8.059 18-18 18-18-8.059-18-18Zm18-30c-16.569 0-30 13.431-30 30 0 16.569 13.431 30 30 30 1.126 0 2.238-.062 3.332-.183l20.425 20.426a6 6 0 0 0 8.486 0l20.425-20.426c1.094.121 2.206.183 3.332.183 16.569 0 30-13.431 30-30 0-16.569-13.431-30-30-30-12.764 0-23.666 7.971-28 19.207C91.666 73.971 80.764 66 68 66Zm40.082 55.433A30.1 30.1 0 0 1 96 106.793a30.101 30.101 0 0 1-12.082 14.64L96 133.515l12.082-12.082ZM124 78c-9.941 0-18 8.059-18 18s8.059 18 18 18 18-8.059 18-18-8.059-18-18-18ZM76 96a8 8 0 1 1-16 0 8 8 0 0 1 16 0Zm48 8a8 8 0 1 0 0-16 8 8 0 0 0 0 16Z" fill="#000"/></svg>

<svg id="vector" xmlns="http://www.w3.org/2000/svg" width="192" height="192" viewBox="0 0 192 192"><path fill="#000000" d="M96,28C86.496,28 78.22,33.307 73.992,41.127C82.736,42.123 88.89,44 96,47.332C103.11,44 109.264,42.123 118.008,41.127C113.781,33.309 105.506,28 96,28ZM96,16C80.027,16 66.432,26.117 61.246,40.28C52.932,40 42.462,40 28.531,40H28.53H28C24.686,40 22,42.686 22,46V170C22,173.314 24.686,176 28,176H120C147.614,176 170,153.614 170,126V46C170,42.686 167.314,40 164,40H163.47H163.469C149.538,40 139.068,40 130.754,40.28C125.566,26.113 111.97,16 96,16ZM34,52.001V164H120C140.987,164 158,146.987 158,126V52.001C139.498,52.01 128.378,52.099 120.128,52.967C111.436,53.882 106.129,55.644 98.683,59.367C96.994,60.211 95.006,60.211 93.317,59.367C85.871,55.644 80.564,53.882 71.872,52.967C63.622,52.099 52.502,52.01 34,52.001ZM50,96C50,86.059 58.059,78 68,78C77.941,78 86,86.059 86,96C86,105.941 77.941,114 68,114C58.059,114 50,105.941 50,96ZM68,66C51.431,66 38,79.432 38,96C38,112.569 51.431,126 68,126C69.126,126 70.238,125.938 71.332,125.817L91.757,146.243C94.101,148.586 97.899,148.586 100.243,146.243L120.668,125.817C121.762,125.938 122.874,126 124,126C140.569,126 154,112.569 154,96C154,79.432 140.569,66 124,66C111.236,66 100.334,73.971 96,85.207C91.666,73.971 80.764,66 68,66ZM108.082,121.433C102.625,118.011 98.348,112.881 96,106.793C93.652,112.881 89.375,118.011 83.918,121.433L96,133.515L108.082,121.433ZM124,78C114.059,78 106,86.059 106,96C106,105.941 114.059,114 124,114C133.941,114 142,105.941 142,96C142,86.059 133.941,78 124,78ZM76,96C76,100.418 72.418,104 68,104C63.582,104 60,100.418 60,96C60,91.582 63.582,88 68,88C72.418,88 76,91.582 76,96ZM124,104C128.418,104 132,100.418 132,96C132,91.582 128.418,88 124,88C119.582,88 116,91.582 116,96C116,100.418 119.582,104 124,104Z" fill-rule="evenodd" id="path_0"/></svg>
